X: 1415
T: Elsey's Waltz
C:Archie Dagg
B: australian traditional tunes wiki
M:3/4
L:1/8
R: Waltz
Q: 1/4=100
K:D
V:1 
AG|:F3EF2|D2F2A2|B2G2d2|A4g2|f3ed2|1d2c2d2|d2A2f2|e4AG:|2A2B2c2|d6|d4A2||
|:f3g fe|d2e2f2|g2B2g2|f4A2|f3g fe|d2c2d2|d2A2f2|e4AG|
F3E FE|D2F2A2|B2G2d2|A4g2|f3ed2|A2B2c2|d6-|1d4A2:|2d4||
V:2 
"A7"FE|:"D"D4D2|D3EF2|"G"G4F2|"A7"EFG ABc|"D"d3AF2|1"D"F2E2F2|F3GAd|"A7"cBA G3:|2"A7"F2G2E2|"D"F3AG2|F4FG||
|:"D"A2D2AG|F2D2Ad|"G"B2D2Bd|"D"A2D2FG|A2D2AG|F2E2DE|F3GAd|"A7"cBA GFE|
"D"D4D2|"Bm"D3EF2|"Em"G4F2|"A7"EFG ABc|"D"d3AF2|"A7"F2G2E2|"D"F3AG2|F4FG:|F4||
% abcbook-tune_id 6342d53a160bbb709ea6729d


% abcbook-boost 0
% abcbook-tablature 
% abcbook-transpose 
% abcbook-lastupdated 1665324364071
% abcbook-soundfonts 
% abcbook-repeats 1
% NFF Book 2014

